resources/material/firefox-relay.svg

<svg xmlns="http://www.w3.org/2000/svg" width="16" height="16" fill="#f4f4f7" fill-opacity="context-fill-opacity">
    <path d="M14.585 3.474 8.685.171a1.418 1.418 0 0 0-1.35 0l-5.92 3.303a1.39 1.39 0 0 0-.706 1.205v6.627c-.004.501.268.963.706 1.204l5.9 3.303c.206.124.444.189.685.187.241-.001.478-.065.686-.187l5.9-3.303c.435-.245.705-.705.706-1.204V4.679a1.393 1.393 0 0 0-.707-1.205zM4.67 10.392a.544.544 0 0 1-.261.331l-.353.207a.553.553 0 0 1-.748-.228.543.543 0 0 1 .208-.747l.35-.206c.27-.166.601-.063.751.227a.54.54 0 0 1 .053.416zm-.053-4.425a.554.554 0 0 1-.478.291.643.643 0 0 1-.27-.062l-.353-.208a.552.552 0 0 1-.236-.762.549.549 0 0 1 .773-.193l.353.207c.271.145.374.477.211.727zm2.231 3.179a.544.544 0 0 1-.26.33l-.728.416a.642.642 0 0 1-.269.062.55.55 0 0 1-.478-.291.543.543 0 0 1 .208-.747l.727-.416a.551.551 0 0 1 .747.229.551.551 0 0 1 .053.417zm-.053-1.933a.55.55 0 0 1-.477.291.647.647 0 0 1-.27-.062l-.727-.416a.574.574 0 0 1-.208-.768.544.544 0 0 1 .747-.207l.727.415a.543.543 0 0 1 .208.747zm2.181 1.226a.489.489 0 0 1-.291.249v4.213a.56.56 0 1 1-1.122 0V8.707a.494.494 0 0 1-.291-.249.556.556 0 0 1-.02-.478.553.553 0 0 1 .021-.478.489.489 0 0 1 .291-.249V3.059a.56.56 0 1 1 1.122 0v4.175c.127.04.232.13.291.25a.55.55 0 0 1 .021.477.557.557 0 0 1-.022.478zm2.161 1.205a.556.556 0 0 1-.748.229l-.727-.416a.55.55 0 0 1 .54-.956l.727.416c.27.145.353.498.208.727zm.052-2.948a.544.544 0 0 1-.261.331l-.727.415a.628.628 0 0 1-.27.062.552.552 0 0 1-.478-.291.547.547 0 0 1 .209-.748l.727-.415a.554.554 0 0 1 .749.229.542.542 0 0 1 .051.417zm1.755 3.964a.554.554 0 0 1-.478.291.647.647 0 0 1-.27-.062l-.354-.208a.548.548 0 0 1 .541-.954l.353.207c.27.166.353.499.208.726zm.051-4.983a.55.55 0 0 1-.259.331l-.353.208a.643.643 0 0 1-.27.062.543.543 0 0 1-.271-1.017l.354-.208a.547.547 0 0 1 .748.208c.071.126.09.276.051.416z"/>
</svg>

<svg xmlns="http://www.w3.org/2000/svg" width="16" height="16" fill="#f4f4f7" fill-opacity="context-fill-opacity"
    viewBox="0 0 16 16">
    <path
        d="M14.585,3.474l-5.9-3.303c-0.421-0.228-0.929-0.228-1.35,0l-5.92,3.303C0.98,3.72,0.711,4.18,0.709,4.679v6.627	c-0.004,0.501,0.268,0.963,0.706,1.204l5.9,3.303C7.521,15.937,7.759,16.002,8,16c0.241-0.001,0.478-0.065,0.686-0.187l5.9-3.303	c0.435-0.245,0.705-0.705,0.706-1.204V4.679C15.289,4.18,15.02,3.72,14.585,3.474z M4.67,10.392	c-0.039,0.141-0.133,0.26-0.261,0.331L4.056,10.93c-0.084,0.04-0.177,0.062-0.27,0.063c-0.2-0.003-0.384-0.115-0.478-0.291	c-0.073-0.126-0.092-0.277-0.053-0.417c0.039-0.141,0.133-0.26,0.261-0.33l0.35-0.206c0.27-0.166,0.601-0.063,0.751,0.227	C4.69,10.101,4.709,10.251,4.67,10.392z M4.617,5.967C4.522,6.143,4.339,6.255,4.139,6.258c-0.094-0.001-0.186-0.022-0.27-0.062	L3.516,5.988c-0.135-0.067-0.237-0.186-0.282-0.33c-0.045-0.144-0.028-0.3,0.046-0.432c0.074-0.131,0.199-0.227,0.345-0.263	c0.146-0.037,0.301-0.011,0.428,0.07L4.406,5.24C4.677,5.385,4.78,5.717,4.617,5.967z M6.848,9.146	c-0.039,0.14-0.133,0.26-0.26,0.33L5.86,9.892c-0.084,0.04-0.176,0.061-0.269,0.062C5.39,9.951,5.208,9.84,5.113,9.663	C5.04,9.537,5.021,9.386,5.06,9.246c0.039-0.14,0.133-0.259,0.261-0.33L6.048,8.5c0.129-0.069,0.281-0.084,0.421-0.041	c0.14,0.043,0.258,0.14,0.326,0.27C6.867,8.855,6.886,9.005,6.848,9.146z M6.795,7.213C6.7,7.39,6.518,7.501,6.318,7.504	c-0.093-0.001-0.186-0.022-0.27-0.062L5.321,7.026C5.056,6.867,4.965,6.528,5.113,6.258c0.071-0.128,0.19-0.221,0.33-0.26	c0.141-0.039,0.291-0.02,0.417,0.053l0.727,0.415c0.128,0.071,0.221,0.19,0.26,0.331C6.887,6.936,6.868,7.087,6.795,7.213z M8.976,8.439C8.917,8.558,8.812,8.648,8.685,8.688v4.213c0,0.31-0.251,0.561-0.561,0.561c-0.31,0-0.561-0.251-0.561-0.561V8.707	c-0.126-0.04-0.231-0.13-0.291-0.249C7.194,8.31,7.186,8.134,7.252,7.98C7.186,7.826,7.194,7.65,7.273,7.502	c0.059-0.119,0.164-0.209,0.291-0.249V3.059c0-0.31,0.251-0.561,0.561-0.561c0.31,0,0.561,0.251,0.561,0.561v4.175	c0.127,0.04,0.232,0.13,0.291,0.25c0.079,0.148,0.087,0.323,0.021,0.477C9.063,8.115,9.055,8.291,8.976,8.439z M11.137,9.644	c-0.095,0.176-0.278,0.287-0.478,0.291c-0.093-0.001-0.186-0.022-0.27-0.062L9.662,9.457c-0.254-0.154-0.34-0.481-0.194-0.74	c0.146-0.259,0.471-0.354,0.734-0.216l0.727,0.416C11.199,9.062,11.282,9.415,11.137,9.644z M11.189,6.696	c-0.039,0.141-0.133,0.26-0.261,0.331l-0.727,0.415c-0.084,0.04-0.176,0.062-0.27,0.062c-0.2-0.003-0.383-0.114-0.478-0.291	C9.381,7.087,9.362,6.937,9.401,6.796c0.039-0.141,0.133-0.26,0.261-0.331l0.727-0.415c0.13-0.069,0.281-0.084,0.422-0.041	c0.14,0.043,0.258,0.14,0.327,0.27C11.21,6.405,11.229,6.556,11.189,6.696z M12.944,10.66c-0.095,0.176-0.278,0.288-0.478,0.291	c-0.093-0.001-0.186-0.022-0.27-0.062l-0.354-0.208c-0.25-0.155-0.334-0.48-0.188-0.737c0.145-0.256,0.467-0.352,0.729-0.217	l0.353,0.207C13.006,10.1,13.089,10.433,12.944,10.66z M12.995,5.677c-0.039,0.14-0.132,0.259-0.259,0.331l-0.353,0.208	c-0.084,0.04-0.176,0.061-0.27,0.062c-0.197,0.007-0.382-0.098-0.478-0.27c-0.073-0.126-0.092-0.277-0.053-0.417	c0.039-0.14,0.133-0.259,0.26-0.33l0.354-0.208c0.127-0.072,0.276-0.09,0.417-0.051c0.14,0.039,0.259,0.132,0.331,0.259	C13.015,5.387,13.034,5.537,12.995,5.677z" />
</svg>
